Simply-Black-Circles/scalable/actions/draw-eraser.svg

<svg xmlns="http://www.w3.org/2000/svg" height="24" width="24"><path d="M13.33 1.71a.93.93 0 0 0-.92.46L8.69 8.54c-.03.06-.04.13-.06.2l-4.84 8.29a.76.76 0 0 0 .28 1.05l6.66 3.81c.38.22.85.09 1.06-.28l4.82-8.25c.06-.06.13-.12.17-.2L20.5 6.8c.26-.44.1-1-.34-1.25l-6.48-3.71a.93.93 0 0 0-.35-.12zm.21 1c.1 0 .2.04.3.09l5.4 3.1c.37.2.5.67.28 1.04l-2.22 3.8-.04-.03-6.66-3.82-.05-.01 2.22-3.8a.78.78 0 0 1 .77-.38z" fill="#1a1a1a" paint-order="markers fill stroke"/></svg>

<?xml version="1.0" encoding="UTF-8" standalone="no"?>
<svg
   xmlns:dc="http://purl.org/dc/elements/1.1/"
   xmlns:cc="http://creativecommons.org/ns#"
   xmlns:rdf="http://www.w3.org/1999/02/22-rdf-syntax-ns#"
   xmlns:svg="http://www.w3.org/2000/svg"
   xmlns="http://www.w3.org/2000/svg"
   xmlns:sodipodi="http://sodipodi.sourceforge.net/DTD/sodipodi-0.dtd"
   xmlns:inkscape="http://www.inkscape.org/namespaces/inkscape"
   height="24"
   width="24"
   version="1.1"
   id="svg4"
   sodipodi:docname="draw-eraser.svg"
   inkscape:version="0.92.4 (5da689c313, 2019-01-14)">
  <metadata
     id="metadata10">
    <rdf:RDF>
      <cc:Work
         rdf:about="">
        <dc:format>image/svg+xml</dc:format>
        <dc:type
           rdf:resource="http://purl.org/dc/dcmitype/StillImage" />
        <dc:title></dc:title>
      </cc:Work>
    </rdf:RDF>
  </metadata>
  <defs
     id="defs8" />
  <sodipodi:namedview
     pagecolor="#ffffff"
     bordercolor="#666666"
     borderopacity="1"
     objecttolerance="10"
     gridtolerance="10"
     guidetolerance="10"
     inkscape:pageopacity="0"
     inkscape:pageshadow="2"
     inkscape:window-width="1078"
     inkscape:window-height="480"
     id="namedview6"
     showgrid="false"
     inkscape:zoom="9.8333333"
     inkscape:cx="-0.81355932"
     inkscape:cy="12"
     inkscape:window-x="0"
     inkscape:window-y="28"
     inkscape:window-maximized="0"
     inkscape:current-layer="svg4" />
  <path
     d="M 13.33,1.71 A 0.93,0.93 0 0 0 12.41,2.17 L 8.69,8.54 C 8.66,8.6 8.65,8.67 8.63,8.74 l -4.84,8.29 a 0.76,0.76 0 0 0 0.28,1.05 l 6.66,3.81 c 0.38,0.22 0.85,0.09 1.06,-0.28 l 4.82,-8.25 c 0.06,-0.06 0.13,-0.12 0.17,-0.2 L 20.5,6.8 c 0.26,-0.44 0.1,-1 -0.34,-1.25 L 13.68,1.84 A 0.93,0.93 0 0 0 13.33,1.72 Z m 0.21,1 c 0.1,0 0.2,0.04 0.3,0.09 l 5.4,3.1 c 0.37,0.2 0.5,0.67 0.28,1.04 L 17.3,10.74 17.26,10.71 10.6,6.89 10.55,6.88 12.77,3.08 A 0.78,0.78 0 0 1 13.54,2.7 Z"
     id="path2"
     inkscape:connector-curvature="0"
     style="fill:#1a1a1a;paint-order:markers fill stroke" />
</svg>
